X: 29359
T: Newmarket
R: polka
M: 2/4
K: Dmajor
|:Ad df|ed Bd/B/|Ad de|fe e2|
Ad df|ed Bd/B/|Ad de|1 fd d>B:|2 fd de||
|:f/g/a gf|ed Bd/B/|Ad de|fe e2|
f/g/a gf|ed Bd/B/|Ad de|1 fd de:|2 fd d>B||

